!!!COM: Fanny Hensel
!!!CNT: Deutsch
!!!TXO: Deutsch
!!!OTL: Die Ersehnte
!!!LYR: Ho2lty
!!!OPR: 12 Lieder
!!!OPS: Op. 9
!!!ONM: No. 1
!!!ENC: Ben Fuhrman
!!!YOR: Frauen komponieren: 25 Lieder fu2r Singstimme und Klavier
!!!YOR: Mainz, B. Schott's So2hne, 1992.
!!!ODT: 1827
!!NB: Only vocal melody encoded.
!!NB: First instance of melodic material only encoded.
!!created: 2/16/10 1:35PM
!!proofed and posted: 2/16/10 1:35PM
**kern	**silbe
*clef G2	*
*k[b-e-a-]	*
*M12/8	*
*MM[Adagio]	*
=2	=2
{[4.ee-	{Bra2ch-
4ee-]	|
8g	-te
4.g	dich
4f	mei-
8g	-nem
=3	=3
4.a-	Arm
4.b-	der
4.cc	na2ch-
4.dd	-ste
=4	=4
[4.ee-	Fru2h
8ee-]	|
8dd	|
8cc	|
4.b-}	-ling!}
4.r	.
=5	=5
{[4.ee-	{To2n
4ee-]	|
8g	-ten
4.g	Vo2-
4f	-gel
8g	aus
=6	=6
4.a-	Blu2-
4.b-	-ten
4.cc-	mir
4.d	das
=7	=7
[4.e-	Braut
8e-]	|
8g	|
8f	|
4.e-}	-lied,}
4.r	.
=8	=8
{4.f	{dann,
4r	.
8f	dann
4.g-	ha2tt'
4.g-	ich
=9	=9
4.an	Se-
4an	-li-
8an	-ger
4.b-	schon
4.cc	auf
=10	=10
(4.cc	Er-
4.b-)	|
(4.cc	-den
4.dd)	|
=11	=11
[2.ee-	Won-
8ee-]	|
8aa-	|
8gg	|
8ff	-ne
8dd	|
8ee-	des
=12	=12
2.ee-	Him-
2.b-	|
=13	=13
4.e-}	-mels.}
4.r	.
2.r	.
==	==
*-	*-
